X:13631
%767
T:Arthur Darley
R:Jig
C:Formally, but with lift, via Phil Rowe
S:Nottingham Music Database
M:6/8
L:1/8
K:Cmaj
cB/2A/2|G2C GFE|DCB, C3|c2d efe|dcB c2G|
c2d efe|
M:9/8
dcB c2G AGF|
M:6/8
EDC DCB,|CG,A, B,CD|Ccc Gdd|Gee Gff|
edc dcB|c3 cBA||G2C GFE|DCB, 
